X:468390
T: The Battering Ram
R: jig
M: 6/8
L: 1/8
K: Gmaj
e|dBA B2A|~G3 GBc|dBA B2A|G2 B/c/d efg|dBA B2A|GED ~G2B|AGE A2B|GED D2B:||
deg a2b|ged edB|deg a2b|gag g2e|deg a2b|ged edB|dBG A2B|GED D3|
deg a2b|ged edB|deg a2b|gag g2e|deg a2b|ged edB|dBG A2B|GED D2|


